X: 1251
T: Dunkeld Harmitage Reel
%R: reel
B: Niel Gow & Sons "A Collection of Strathspey Reels, etc." v.1 p.25 #1
Z: 2022 John Chambers <jc:trillian.mit.edu>
M: C|
L: 1/8
K: Em
% - - - - - - - - - -
% Voice 1 reformatted for _ _-bar lines, for compactness and proofreading.
V: 1 staves=2
e |\
E/E/E TB2 GEBG | FdAd FDAF | E/E/E TB2 GEBG | AFdF E/E/E E :| g | e/e/e Tg2 bege | d/d/d fd adfd |
e/e/e Tg2 bege | dBdF E/E/E Eg || e/e/e Tg2 bege | d/d/d fd adfd | gbfa efde | BFdF E/E/E E |]
% - - - - - - - - - -
% Voice 2 preserves the staff layout in the book.
V: 2 clef=bass middle=d
z |\
e2e2 e2e2 | d2d2 d2d2 | e2e2 e2e2 | a2b2 e2e :| a | e2e2 e2e2 | d2d2 d2d2 |
e2e2 e2e2 | d2d2 e2e2 || e2e2 e2e2 | d2d2 d2d2 | e2f2 g2a2 | b2B2 e2e |]


